icon-svg/bulb-flood.svg

<?xml version="1.0" encoding="UTF-8"?>
<svg width="32px" height="32px" viewBox="0 0 32 32" version="1.1" fill="#44739e" xmlns="http://www.w3.org/2000/svg" xmlns:xlink="http://www.w3.org/1999/xlink">
            <path d="M8.1699,10.0847 C10.2199,10.7047 13.1699,10.9997 15.9999,10.9997 C18.8299,10.9997 21.7799,10.7047 23.8299,10.0847 L20.2109,14.3627 C19.8609,14.7747 19.6629,15.2937 19.6459,15.8337 L19.5019,20.9477 C19.4859,21.4647 19.0799,21.8807 18.5639,21.9157 C17.7739,21.9687 16.9199,21.9997 15.9999,21.9997 C15.0799,21.9997 14.2269,21.9687 13.4369,21.9157 C12.9199,21.8807 12.5139,21.4647 12.4979,20.9477 L12.3549,15.8337 C12.3369,15.2937 12.1389,14.7747 11.7889,14.3627 L8.1699,10.0847 Z M25,6.653 L25,6.654 L25,7.344 L25,7.345 L25,7.346 L25,7.604 C25,7.956 24.938,8.302 24.819,8.628 C23.554,9.278 20.542,10 16,10 C11.458,10 8.446,9.278 7.181,8.628 C7.063,8.301 7,7.956 7,7.604 L7,7.346 L7,7.344 L7,6.654 L7,6.653 C7,6.472 7.06,6.292 7.18,6.122 C8.01,4.912 11.65,4 16,4 C20.97,4 25,5.188 25,6.653 Z M13,22.862 C14.041,22.963 15.187,23 16,23 C16.813,23 17.959,22.963 19,22.862 L18.499,25.97 C18.473,26.188 18.367,26.39 18.199,26.543 L17.732,26.967 C17.701,26.996 17.672,27.027 17.645,27.059 L17.151,27.642 C16.961,27.868 16.672,28 16.365,28 L16,28 L15.635,28 C15.328,28 15.039,27.868 14.849,27.642 L14.355,27.059 C14.328,27.027 14.299,26.996 14.268,26.967 L13.801,26.543 C13.633,26.39 13.527,26.188 13.501,25.97 L13,22.862 Z"></path>
</svg>

<svg xmlns="http://www.w3.org/2000/svg" fill="#44739e" viewBox="0 0 24 24"><path d="M8.1699 10.0847c2.05.62 5 .915 7.83.915s5.78-.295 7.83-.915l-3.619 4.278c-.35.412-.548.931-.565 1.471l-.144 5.114c-.016.517-.422.933-.938.968-.79.053-1.644.084-2.564.084s-1.773-.031-2.563-.084c-.517-.035-.923-.451-.939-.968l-.143-5.114a2.394 2.394 0 0 0-.566-1.471zM25 6.653v.951c0 .352-.062.698-.181 1.024C23.554 9.278 20.542 10 16 10s-7.554-.722-8.819-1.372A3.01 3.01 0 0 1 7 7.604v-.951c0-.181.06-.361.18-.531C8.01 4.912 11.65 4 16 4c4.97 0 9 1.188 9 2.653M13 22.862c1.041.101 2.187.138 3 .138s1.959-.037 3-.138l-.501 3.108c-.026.218-.132.42-.3.573l-.467.424c-.031.029-.06.06-.087.092l-.494.583c-.19.226-.479.358-.786.358h-.73c-.307 0-.596-.132-.786-.358l-.494-.583a1.1 1.1 0 0 0-.087-.092l-.467-.424c-.168-.153-.274-.355-.3-.573z"/></svg>
